usr/share/icons/biglinux-icons-material-dark/22/actions/view-file-columns.svg

<svg xmlns="http://www.w3.org/2000/svg" viewBox="0 0 22 22">
<defs id="defs3051">
<style id="current-color-scheme" type="text/css">
.ColorScheme-Text{color:#dedede}
</style>
</defs>
<path d="M3 3v16h5V3zm6 0v16h5V3zm6 0v16h5V3zm-5 1h3v14h-3z" class="ColorScheme-Text" style="fill:currentColor;fill-opacity:1;stroke:none"/>
</svg>

<svg xmlns="http://www.w3.org/2000/svg" viewBox="0 0 22 22">
  <defs id="defs3051">
    <style type="text/css" id="current-color-scheme">
      .ColorScheme-Text {
        color:#dedede;
      }
      </style>
  </defs>
 <path 
    style="fill:currentColor;fill-opacity:1;stroke:none" 
    d="M 3 3 L 3 19 L 8 19 L 8 3 L 3 3 z M 9 3 L 9 19 L 14 19 L 14 3 L 9 3 z M 15 3 L 15 19 L 20 19 L 20 3 L 15 3 z M 10 4 L 13 4 L 13 18 L 10 18 L 10 4 z "
	class="ColorScheme-Text"
    />  
</svg>
